X:1
T:Jesus Will Save You Today
T:Jesus Will Save You Today
T:John Michael Bowman
T:John Michael Bowman, 1900
T:Public Domain Courtesy of the Cyber Hymnal™
T:Public Domain Courtesy of the Cyber Hymnal™
C:John Michael Bowman
Z:Public Domain
Z:Courtesy of the Cyber Hymnal™
%%score ( 1 2 ) ( 3 4 )
L:1/8
Q:1/4=75
M:6/8
K:G
V:1 treble 
V:2 treble 
V:3 bass 
V:4 bass 
V:1
"^Slow and with feeling" D | B>AG G>FE | D>CB, D2 G | A>GF G>Ac | B3- B2 D | B>^AB =AGF | %6
w: 1.~O|sin- ner, why lin- ger in|doubt and dis- may, When|Je- sus is rea- dy to|save? * Ac-|cept His sal- va- tion, His|
w: 2.~Come,|sin- ners, “why stand ye here|i- dle all day?” The|Mas- ter is wait- ing for|you; * Come|en- ter the vine- yard, why|
w: 3.~Come|bro- thers, why wait ye here,|no- thing to do, While|o- thers a stea- dy watch|keep? * The|fields are all whit- ened— the|
w: 4.~Oh,|sin- ner, why tar- ry the|call to o- bey? Per-|suad- ed, ac- cept- ing, al-|most; * How|sad if the death an- gel|
 GAB c2 B | A>GA B!fermata!BA x2 | G3- G2 ||"^Refrain" [B,D] | [DB]>[DB][DB] [DB]>[CA][B,G] | %11
w: call- ing o- bey, For|you His own life- blood He|gave. *|||
w: lin- ger a- way? Here|you will find ser- vice to|do. *|||
w: la- b’rers are few, The|har- vest is rea- dy to|reap. *|Yes,|Je- sus will par- don, His|
w: brook no de- lay, So|near to the king- dom, but|lost. *|||
 [EG]>[EA][EG] [CE]2 [CE] | [B,D]>[B,G][CA] [DB]>[DA][^CG] | A3- [=CA]2 D | %14
w: |||
w: |||
w: mer- cy is sure, Come|sin- ner, no lon- ger de-|lay; Ac- cept|
w: |||
 [GB]>[G^A][GB] G>[G=A][GB] | [Gc]2 [Gc] [GB]2 [GB] | [FA]>[EG][FA] [GB]!fermata![GB][DA] | %17
w: |||
w: |||
w: His sal- va- tion, His love|so pure, And Je-|sus will save you to- day.|
w: |||
 [DG]3- [DG]2 |] %18
w: |
w: |
w: |
w: |
V:2
 x | x6 | x6 | x6 | x6 | x6 | x6 | x8 | G3- G2 || x | x6 | x6 | x6 | (D2 ^C D) x2 | x3 G3/2 x3/2 | %15
 x6 | x6 | x5 |] %18
V:3
 B, | D>CB, E>DC | B,>A,G, [G,,G,B,]2 B, | C>B,A, B,>CD | [G,,G,D]3- [G,,G,D]2 B, | D>^CD =CB,A, | %6
 B,CD [C,G,E]2 D | C>B,C D x4 | [G,,G,B,]3- [G,,G,B,]2 || G, | G,>G,G, [G,,G,]>[G,,G,][G,,G,] | %11
 [C,G,]>[C,C][C,C] [C,G,]2 [C,G,] | [G,,G,]>[G,,G,][G,,G,] G,>[F,A,][E,A,] | %13
 ([D,F,]2 [E,G,] [F,A,]2) [G,B,] | [G,D]>[G,^C][G,D] [G,B,]>[G,=C][G,D] | %15
 [C,E]2 [C,_E] [G,D]2 [G,D] | [D,C]>[D,B,][D,C] [D,D][D,D][D,C] | [G,,B,]3- [G,,B,]2 |] %18
V:4
 x | [G,,G,]3 [C,G,]3 | [G,,G,]3 x3 | [D,,D,]3 [D,,D,]3 | x6 | [G,,G,]3 [E,,D,]3 | [G,,G,]3 x3 | %7
 [D,,D,]3 [D,,D,]3 DC | x5 || G, | G,>G,G, x3 | x6 | x3 G,3/2 x3/2 | x6 | x6 | x6 | x6 | x5 |] %18

